images_elementary_svg/cmd/lc_bibliographycomponent.svg

<svg height="24" width="24" xmlns="http://www.w3.org/2000/svg" xmlns:xlink="http://www.w3.org/1999/xlink"><linearGradient id="a"><stop offset="0" stop-color="#272727"/><stop offset="1" stop-color="#454545"/></linearGradient><linearGradient id="b" gradientTransform="matrix(.4054 0 0 .45946 2.27 8.973)" gradientUnits="userSpaceOnUse" x1="24.107" x2="24.107" y1="6.589" y2="41.412"><stop offset="0" stop-color="#fff"/><stop offset="0" stop-color="#fff" stop-opacity=".235"/><stop offset="1" stop-color="#fff" stop-opacity=".157"/><stop offset="1" stop-color="#fff" stop-opacity=".392"/></linearGradient><radialGradient id="c" cx="7.496" cy="8.45" gradientTransform="matrix(0 1.13853 -.9889 0 19.656 2.25)" gradientUnits="userSpaceOnUse" r="20"><stop offset="0" stop-color="#5f5f5f"/><stop offset=".262" stop-color="#4f4f4f"/><stop offset=".705" stop-color="#3b3b3b"/><stop offset="1" stop-color="#2b2b2b"/></radialGradient><linearGradient id="d" gradientTransform="matrix(.4 0 0 .48718 1.7 8.307)" gradientUnits="userSpaceOnUse" x1="24" x2="24" xlink:href="#a" y1="44" y2="3.899"/><radialGradient id="e" cx="24.502" cy="6.648" gradientTransform="matrix(0 1.27118 -1.49728 0 22.453 -20.79)" gradientUnits="userSpaceOnUse" r="17.498"><stop offset="0" stop-color="#ddcfbd"/><stop offset="1" stop-color="#856f50"/></radialGradient><linearGradient id="f" gradientTransform="matrix(.32957 0 0 .3414 1.954 8.826)" gradientUnits="userSpaceOnUse" x1="32.901" x2="32.901" y1="4.648" y2="61.482"><stop offset="0" stop-color="#a79071"/><stop offset="1" stop-color="#6f5d45"/></linearGradient><linearGradient id="g" gradientTransform="matrix(.4 0 0 .5 .9 8.25)" gradientUnits="userSpaceOnUse" x1="10.654" x2="10.654" xlink:href="#h" y1="1" y2="3"/><linearGradient id="h"><stop offset="0" stop-color="#eee"/><stop offset="1" stop-color="#d9d9da"/></linearGradient><linearGradient id="i" gradientTransform="matrix(.4 0 0 .05128 1.7 8.27)" gradientUnits="userSpaceOnUse" x1="24" x2="24" xlink:href="#a" y1="44" y2="3.899"/><linearGradient id="j" gradientTransform="matrix(.5259 0 0 1.01646 -.258 5.508)" gradientUnits="userSpaceOnUse" x1="24.64" x2="24.64" xlink:href="#h" y1="3.381" y2="4.497"/><linearGradient id="k" gradientTransform="matrix(.37517 0 0 .49377 .23 8.144)" gradientUnits="userSpaceOnUse" x1="10.199" x2="54.887" y1=".065" y2=".065"><stop offset="0" stop-color="#9b876c"/><stop offset=".934" stop-color="#9b876c"/><stop offset=".942" stop-color="#c2c2c2"/><stop offset="1" stop-color="#c2c2c2"/></linearGradient><radialGradient id="l" cx="4.993" cy="43.5" gradientTransform="matrix(2.00378 0 0 1.4 27.988 -17.4)" gradientUnits="userSpaceOnUse" r="2.5" xlink:href="#m"/><linearGradient id="m"><stop offset="0" stop-color="#181818"/><stop offset="1" stop-color="#181818" stop-opacity="0"/></linearGradient><radialGradient id="n" cx="4.993" cy="43.5" gradientTransform="matrix(2.00378 0 0 1.4 -20.012 -104.4)" gradientUnits="userSpaceOnUse" r="2.5" xlink:href="#m"/><linearGradient id="o" gradientUnits="userSpaceOnUse" x1="25.058" x2="25.058" y1="47.028" y2="39.999"><stop offset="0" stop-color="#181818" stop-opacity="0"/><stop offset=".5" stop-color="#181818"/><stop offset="1" stop-color="#181818" stop-opacity="0"/></linearGradient><g opacity=".4"><path d="m38 40h5v7h-5z" fill="url(#l)" transform="matrix(.52632 0 0 .42857 -.632 2.857)"/><path d="m-10-47h5v7h-5z" fill="url(#n)" transform="matrix(-.52632 0 0 -.42857 -.632 2.857)"/><path d="m10 40h28v7h-28z" fill="url(#o)" transform="matrix(.52632 0 0 .42857 -.632 2.857)"/></g><g stroke-linejoin="round"><path d="m20.49 10.304c-.153-.655-.057-1.17-.142-1.796h-15.84l.094 1.983" fill="url(#j)" stroke="url(#k)" stroke-miterlimit="0" stroke-width="1.017" transform="translate(0 -8)"/><g stroke-linecap="round"><path d="m5.5 10.5h-1.6c-.228 0-.4-.02-.4-.05v-1.396c0-.444.224-.553.516-.553h1.484" fill="url(#g)" stroke="url(#i)" transform="translate(0 -8)"/><path d="m4.51 10.51h15.98v18.98h-15.98z" fill="url(#e)" stroke="url(#f)" stroke-miterlimit="0" stroke-width="1.019" transform="translate(0 -8)"/><path d="m5.5 10.5v19h-1.6c-.228 0-.4-.2-.4-.464v-18.536z" fill="url(#c)" stroke="url(#d)" transform="translate(0 -8)"/><path d="m4.5 11.5h15v17h-15z" fill="none" opacity=".5" stroke="url(#b)" transform="translate(0 -8)"/></g></g></svg>

<svg xmlns="http://www.w3.org/2000/svg" xmlns:xlink="http://www.w3.org/1999/xlink" height="24" width="24"><linearGradient id="a"><stop offset="0" stop-color="#5f5f5f"/><stop offset=".262" stop-color="#4f4f4f"/><stop offset=".705" stop-color="#3b3b3b"/><stop offset="1" stop-color="#2b2b2b"/></linearGradient><linearGradient id="b"><stop offset="0" stop-color="#272727"/><stop offset="1" stop-color="#454545"/></linearGradient><linearGradient id="p" gradientTransform="matrix(.4054 0 0 .45946 2.27 8.973)" gradientUnits="userSpaceOnUse" x1="24.107" x2="24.107" y1="6.589" y2="41.412"><stop offset="0" stop-color="#fff"/><stop offset="0" stop-color="#fff" stop-opacity=".235"/><stop offset="1" stop-color="#fff" stop-opacity=".157"/><stop offset="1" stop-color="#fff" stop-opacity=".392"/></linearGradient><radialGradient id="n" cx="7.496" cy="8.45" gradientTransform="matrix(0 1.13853 -.9889 0 19.656 2.25)" gradientUnits="userSpaceOnUse" r="20" xlink:href="#a"/><linearGradient id="o" gradientTransform="matrix(.4 0 0 .48718 1.7 8.307)" gradientUnits="userSpaceOnUse" x1="24" x2="24" xlink:href="#b" y1="44" y2="3.899"/><radialGradient id="l" cx="24.502" cy="6.648" gradientTransform="matrix(0 1.27118 -1.49728 0 22.453 -20.79)" gradientUnits="userSpaceOnUse" r="17.498"><stop offset="0" stop-color="#ddcfbd"/><stop offset="1" stop-color="#856f50"/></radialGradient><linearGradient id="m" gradientTransform="matrix(.32957 0 0 .3414 1.954 8.826)" gradientUnits="userSpaceOnUse" x1="32.901" x2="32.901" y1="4.648" y2="61.482"><stop offset="0" stop-color="#a79071"/><stop offset="1" stop-color="#6f5d45"/></linearGradient><linearGradient id="j" gradientTransform="matrix(.4 0 0 .5 .9 8.25)" gradientUnits="userSpaceOnUse" x1="10.654" x2="10.654" xlink:href="#c" y1="1" y2="3"/><linearGradient id="c"><stop offset="0" stop-color="#eee"/><stop offset="1" stop-color="#d9d9da"/></linearGradient><linearGradient id="k" gradientTransform="matrix(.4 0 0 .05128 1.7 8.27)" gradientUnits="userSpaceOnUse" x1="24" x2="24" xlink:href="#b" y1="44" y2="3.899"/><linearGradient id="h" gradientTransform="matrix(.5259 0 0 1.01646 -.258 5.508)" gradientUnits="userSpaceOnUse" x1="24.64" x2="24.64" xlink:href="#c" y1="3.381" y2="4.497"/><linearGradient id="i" gradientTransform="matrix(.37517 0 0 .49377 .23 8.144)" gradientUnits="userSpaceOnUse" x1="10.199" x2="54.887" y1=".065" y2=".065"><stop offset="0" stop-color="#9b876c"/><stop offset=".934" stop-color="#9b876c"/><stop offset=".942" stop-color="#c2c2c2"/><stop offset="1" stop-color="#c2c2c2"/></linearGradient><radialGradient id="e" cx="4.993" cy="43.5" gradientTransform="matrix(2.00378 0 0 1.4 27.988 -17.4)" gradientUnits="userSpaceOnUse" r="2.5" xlink:href="#d"/><linearGradient id="d"><stop offset="0" stop-color="#181818"/><stop offset="1" stop-color="#181818" stop-opacity="0"/></linearGradient><radialGradient id="f" cx="4.993" cy="43.5" gradientTransform="matrix(2.00378 0 0 1.4 -20.012 -104.4)" gradientUnits="userSpaceOnUse" r="2.5" xlink:href="#d"/><linearGradient id="g" gradientUnits="userSpaceOnUse" x1="25.058" x2="25.058" y1="47.028" y2="39.999"><stop offset="0" stop-color="#181818" stop-opacity="0"/><stop offset=".5" stop-color="#181818"/><stop offset="1" stop-color="#181818" stop-opacity="0"/></linearGradient><g opacity=".4"><path d="M38 40h5v7h-5z" fill="url(#e)" transform="matrix(.52632 0 0 .42857 -.632 2.857)"/><path d="M-10-47h5v7h-5z" fill="url(#f)" transform="matrix(-.52632 0 0 -.42857 -.632 2.857)"/><path d="M10 40h28v7H10z" fill="url(#g)" transform="matrix(.52632 0 0 .42857 -.632 2.857)"/></g><g stroke-linejoin="round"><path d="M20.49 10.304c-.153-.655-.057-1.17-.142-1.796H4.508l.094 1.983" fill="url(#h)" stroke="url(#i)" stroke-miterlimit="0" stroke-width="1.017" transform="translate(0 -8)"/><g stroke-linecap="round"><path d="M5.5 10.5H3.9c-.228 0-.4-.02-.4-.05V9.054c0-.444.224-.553.516-.553H5.5" fill="url(#j)" stroke="url(#k)" transform="translate(0 -8)"/><path d="M4.51 10.51h15.98v18.98H4.51z" fill="url(#l)" stroke="url(#m)" stroke-miterlimit="0" stroke-width="1.019" transform="translate(0 -8)"/><path d="M5.5 10.5v19H3.9c-.228 0-.4-.2-.4-.464V10.5z" fill="url(#n)" stroke="url(#o)" transform="translate(0 -8)"/><path d="M4.5 11.5h15v17h-15z" fill="none" opacity=".5" stroke="url(#p)" transform="translate(0 -8)"/></g></g></svg>
